apps/site/public/static/logos/nodejsLightPride.svg

<svg width="267" height="80" viewBox="0 0 267 80" fill="none" xmlns="http://www.w3.org/2000/svg">
<g clip-path="url(#clip0_12_39)">
<mask id="mask0_12_39" style="mask-type:luminance" maskUnits="userSpaceOnUse" x="0" y="0" width="267" height="80">
<path d="M266.96 0H0V79.988H266.96V0Z" fill="white"/>
</mask>
<g mask="url(#mask0_12_39)">
<path d="M234.948 78.743C234.257 78.743 233.613 78.5578 233.015 78.2336L226.895 74.576C225.974 74.0666 226.435 73.8814 226.711 73.7888C227.953 73.372 228.183 73.2794 229.471 72.5388C229.61 72.4461 229.794 72.4925 229.931 72.5851L234.625 75.4094C234.809 75.502 235.038 75.502 235.177 75.4094L253.537 64.7139C253.72 64.6213 253.814 64.4361 253.814 64.2048V42.8602C253.814 42.6288 253.72 42.4437 253.537 42.351L235.177 31.7021C234.993 31.6094 234.762 31.6094 234.625 31.7021L216.265 42.351C216.081 42.4437 215.989 42.675 215.989 42.8602V64.2048C215.989 64.39 216.081 64.6213 216.265 64.7139L221.28 67.631C223.995 69.0198 225.698 67.3994 225.698 65.7788V44.7123C225.698 44.4346 225.928 44.1568 226.251 44.1568H228.598C228.874 44.1568 229.15 44.3882 229.15 44.7123V65.7788C229.15 69.4367 227.171 71.5664 223.719 71.5664C222.662 71.5664 221.834 71.5664 219.486 70.4091L214.655 67.631C213.459 66.9364 212.722 65.6401 212.722 64.2509V42.9066C212.722 41.5175 213.459 40.2212 214.655 39.5266L233.015 28.8314C234.165 28.1832 235.729 28.1832 236.88 28.8314L255.239 39.5266C256.435 40.2212 257.171 41.5175 257.171 42.9066V64.2509C257.171 65.6401 256.435 66.9364 255.239 67.631L236.88 78.3262C236.328 78.5578 235.637 78.743 234.948 78.743Z" fill="#5FA04E"/>
<path d="M240.653 64.0652C232.6 64.0652 230.943 60.3612 230.943 57.2128C230.943 56.935 231.173 56.6571 231.495 56.6571H233.888C234.165 56.6571 234.394 56.8425 234.394 57.1202C234.762 59.574 235.821 60.778 240.699 60.778C244.564 60.778 246.221 59.8982 246.221 57.8148C246.221 56.611 245.759 55.7313 239.732 55.1293C234.717 54.6198 231.587 53.5087 231.587 49.4805C231.587 45.7304 234.717 43.5078 239.962 43.5078C245.853 43.5078 248.751 45.5451 249.119 49.99C249.119 50.1289 249.074 50.2677 248.983 50.4067C248.888 50.4992 248.751 50.5919 248.611 50.5919H246.173C245.945 50.5919 245.714 50.4067 245.668 50.1751C245.115 47.6286 243.688 46.7953 239.916 46.7953C235.682 46.7953 235.177 48.2768 235.177 49.388C235.177 50.7306 235.774 51.1475 241.48 51.8882C247.14 52.6289 249.81 53.6939 249.81 57.6757C249.81 61.7501 246.45 64.0652 240.653 64.0652Z" fill="#5FA04E"/>
<path d="M267.16 41.6557C267.16 43.6005 265.548 45.221 263.615 45.221C261.683 45.221 260.072 43.6466 260.072 41.6557C260.072 39.6187 261.729 38.0908 263.615 38.0908C265.503 38.0908 267.16 39.6648 267.16 41.6557ZM260.625 41.6557C260.625 43.3227 261.96 44.6654 263.569 44.6654C265.227 44.6654 266.561 43.2763 266.561 41.6557C266.561 39.989 265.227 38.6927 263.569 38.6927C262.006 38.6927 260.625 39.989 260.625 41.6557ZM262.282 39.6648H263.663C264.123 39.6648 265.044 39.6648 265.044 40.7298C265.044 41.4706 264.581 41.6096 264.304 41.7021C264.859 41.7484 264.904 42.119 264.949 42.6281C264.996 42.9523 265.044 43.5078 265.135 43.693H264.304C264.304 43.5078 264.168 42.4894 264.168 42.443C264.123 42.2116 264.031 42.119 263.755 42.119H263.064V43.7393H262.282V39.6648ZM263.017 41.4244H263.615C264.123 41.4244 264.213 41.0541 264.213 40.8688C264.213 40.3133 263.845 40.3133 263.615 40.3133H262.973V41.4244H263.017Z" fill="#5FA04E"/>
<path fill-rule="evenodd" clip-rule="evenodd" d="M43.6671 41.9478C43.6671 41.1144 43.2071 40.3275 42.4709 39.9107L23.007 28.5671C22.6849 28.3819 22.3167 28.2893 21.9486 28.2432C21.9026 28.2432 21.7647 28.2432 21.7647 28.2432C21.3965 28.2432 21.0284 28.3819 20.7063 28.5671L1.19636 39.8643C0.46014 40.2811 0 41.0684 0 41.9478L0.046014 72.3209C0.046014 72.7377 0.276084 73.1542 0.644196 73.3394C1.0123 73.5711 1.47245 73.5711 1.79455 73.3394L13.3901 66.6722C14.1263 66.2556 14.5864 65.4685 14.5864 64.6351V50.4208C14.5864 49.5875 15.0465 48.8002 15.7828 48.3837L20.7063 45.5131C21.0744 45.2814 21.4885 45.1888 21.9026 45.1888C22.3167 45.1888 22.7309 45.2814 23.053 45.5131L27.9764 48.3837C28.7126 48.8002 29.1729 49.5875 29.1729 50.4208V64.6351C29.1729 65.4685 29.6331 66.2556 30.3692 66.6722L41.8728 73.3394C42.2408 73.5711 42.7009 73.5711 43.0691 73.3394C43.4373 73.1542 43.6671 72.7377 43.6671 72.3209V41.9478Z" fill="white"/>
<path fill-rule="evenodd" clip-rule="evenodd" d="M137.444 0.138901C137.076 -0.0463003 136.616 -0.0463003 136.293 0.138901C135.925 0.370401 135.696 0.740804 135.696 1.15751V31.2526C135.696 31.5304 135.557 31.8081 135.281 31.9936C135.005 32.1324 134.729 32.1324 134.453 31.9936L129.576 29.1691C128.84 28.7526 127.965 28.7526 127.229 29.1691L107.719 40.5127C106.983 40.9295 106.523 41.7165 106.523 42.5498V65.1906C106.523 66.0243 106.983 66.8112 107.719 67.228L127.229 78.5716C127.965 78.9882 128.84 78.9882 129.576 78.5716L149.086 67.228C149.822 66.8112 150.282 66.0243 150.282 65.1906V8.75077C150.282 7.87104 149.822 7.08394 149.086 6.66724L137.444 0.138901ZM135.65 57.7365C135.65 57.9678 135.557 58.153 135.374 58.2457L128.701 62.1351C128.517 62.2277 128.287 62.2277 128.103 62.1351L121.431 58.2457C121.247 58.153 121.155 57.9216 121.155 57.7365V49.9581C121.155 49.7265 121.247 49.5413 121.431 49.4487L128.103 45.5595C128.287 45.4669 128.517 45.4669 128.701 45.5595L135.374 49.4487C135.557 49.5413 135.65 49.7729 135.65 49.9581V57.7365Z" fill="white"/>
<path fill-rule="evenodd" clip-rule="evenodd" d="M202.367 49.7725C203.105 49.3557 203.518 48.5688 203.518 47.7352V42.2255C203.518 41.3922 203.059 40.605 202.367 40.1885L182.996 28.8912C182.26 28.4744 181.386 28.4744 180.649 28.8912L161.14 40.2346C160.403 40.6514 159.943 41.4385 159.943 42.2719V64.9128C159.943 65.7461 160.403 66.5333 161.14 66.9498L180.511 78.0619C181.248 78.4786 182.122 78.4786 182.812 78.0619L194.546 71.4875C194.914 71.3023 195.144 70.8855 195.144 70.4686C195.144 70.0521 194.914 69.6354 194.546 69.4501L174.944 58.1064C174.576 57.8751 174.346 57.5048 174.346 57.088V50.0041C174.346 49.5873 174.576 49.1705 174.944 48.9853L181.064 45.4666C181.432 45.2352 181.892 45.2352 182.26 45.4666L188.38 48.9853C188.748 49.217 188.977 49.5873 188.977 50.0041V55.56C188.977 55.9768 189.208 56.3933 189.577 56.5786C189.944 56.8102 190.404 56.8102 190.772 56.5786L202.367 49.7725Z" fill="white"/>
<path fill-rule="evenodd" clip-rule="evenodd" d="M181.524 48.7082C181.661 48.6155 181.846 48.6155 181.985 48.7082L185.711 50.8843C185.849 50.9768 185.941 51.1158 185.941 51.301V55.6532C185.941 55.8384 185.849 55.9774 185.711 56.07L181.985 58.2461C181.846 58.3387 181.661 58.3387 181.524 58.2461L177.797 56.07C177.659 55.9774 177.567 55.8384 177.567 55.6532V51.301C177.567 51.1158 177.659 50.9768 177.797 50.8843L181.524 48.7082Z" fill="#5FA04E"/>
<mask id="mask1_12_39" style="mask-type:alpha" maskUnits="userSpaceOnUse" x="53" y="28" width="44" height="51">
<path d="M76.2211 28.9482C75.4847 28.5316 74.6105 28.5316 73.8743 28.9482L54.5024 40.1993C53.7662 40.616 53.3521 41.4029 53.3521 42.2366V64.7846C53.3521 65.6181 53.8122 66.405 54.5024 66.8219L73.8743 78.0729C74.6105 78.4894 75.4847 78.4894 76.2211 78.0729L95.5929 66.8219C96.3288 66.405 96.7431 65.6181 96.7431 64.7846V42.2366C96.7431 41.4029 96.2832 40.616 95.5929 40.1993L76.2211 28.9482Z" fill="white"/>
</mask>
<g mask="url(#mask1_12_39)">
<path d="M103.17 53.5459H53.4209V61.8043H103.17V53.5459Z" fill="#008026"/>
<path d="M103.17 61.8042H53.4209V70.1621H103.17V61.8042Z" fill="#004DFF"/>
<path d="M103.17 37.0293H53.4209V45.2877H103.17V37.0293Z" fill="#FF8C00"/>
<path d="M103.17 45.2876H53.4209V53.546H103.17V45.2876Z" fill="#FFED00"/>
<path d="M103.17 28.6714H53.4209V37.0293H103.17V28.6714Z" fill="#E40303"/>
<path d="M103.17 70.1626H53.4209V78.421H103.17V70.1626Z" fill="#750787"/>
</g>
</g>
</g>
<defs>
<clipPath id="clip0_12_39">
<rect width="267" height="79.988" fill="white"/>
</clipPath>
</defs>
</svg>

<svg xmlns="http://www.w3.org/2000/svg" width="267" height="80" fill="none"><mask id="a" width="267" height="80" x="0" y="0" maskUnits="userSpaceOnUse" style="mask-type:luminance"><path fill="#fff" d="M266.96 0H0v79.988h266.96V0Z"/></mask><g mask="url(#a)"><path fill="#5FA04E" d="M234.948 78.743a4.013 4.013 0 0 1-1.933-.51l-6.12-3.657c-.921-.51-.46-.695-.184-.787 1.242-.417 1.472-.51 2.76-1.25.139-.093.323-.046.46.046l4.694 2.824c.184.093.413.093.552 0l18.36-10.695c.183-.093.277-.278.277-.51V42.86c0-.231-.094-.416-.277-.509l-18.36-10.649c-.184-.093-.415-.093-.552 0l-18.36 10.649c-.184.093-.276.324-.276.51v21.344c0 .185.092.416.276.509l5.015 2.917c2.715 1.389 4.418-.232 4.418-1.852V44.712c0-.277.23-.555.553-.555h2.347c.276 0 .552.231.552.555V65.78c0 3.658-1.979 5.787-5.431 5.787-1.057 0-1.885 0-4.233-1.157l-4.831-2.778a3.913 3.913 0 0 1-1.933-3.38V42.907c0-1.39.737-2.686 1.933-3.38l18.36-10.696c1.15-.648 2.714-.648 3.865 0l18.359 10.696a3.913 3.913 0 0 1 1.932 3.38V64.25c0 1.39-.736 2.685-1.932 3.38L236.88 78.326c-.552.232-1.243.417-1.932.417Z"/><path fill="#5FA04E" d="M240.653 64.065c-8.053 0-9.71-3.704-9.71-6.852 0-.278.23-.556.552-.556h2.393c.277 0 .506.186.506.463.368 2.454 1.427 3.658 6.305 3.658 3.865 0 5.522-.88 5.522-2.963 0-1.204-.462-2.084-6.489-2.686-5.015-.51-8.145-1.62-8.145-5.648 0-3.75 3.13-5.973 8.375-5.973 5.891 0 8.789 2.037 9.157 6.482a.755.755 0 0 1-.136.417c-.095.092-.232.185-.372.185h-2.438a.54.54 0 0 1-.505-.417c-.553-2.546-1.98-3.38-5.752-3.38-4.234 0-4.739 1.482-4.739 2.593 0 1.343.597 1.76 6.303 2.5 5.66.74 8.33 1.806 8.33 5.788 0 4.074-3.36 6.39-9.157 6.39ZM267.16 41.656c0 1.944-1.612 3.565-3.545 3.565a3.556 3.556 0 0 1-3.543-3.565 3.555 3.555 0 0 1 3.543-3.565c1.888 0 3.545 1.574 3.545 3.565Zm-6.535 0c0 1.667 1.335 3.01 2.944 3.01 1.658 0 2.992-1.39 2.992-3.01 0-1.667-1.334-2.963-2.992-2.963-1.563 0-2.944 1.296-2.944 2.963Zm1.657-1.991h1.381c.46 0 1.381 0 1.381 1.065 0 .74-.463.88-.74.972.555.046.6.417.645.926.047.324.095.88.186 1.065h-.831c0-.185-.136-1.204-.136-1.25-.045-.231-.137-.324-.413-.324h-.691v1.62h-.782v-4.074Zm.735 1.76h.598c.508 0 .598-.37.598-.556 0-.556-.368-.556-.598-.556h-.642v1.111h.044Z"/><path fill="#fff" fill-rule="evenodd" d="M43.667 41.948c0-.834-.46-1.62-1.196-2.037L23.007 28.567c-.322-.185-.69-.278-1.058-.324h-.184c-.369 0-.737.139-1.059.324L1.196 39.864A2.377 2.377 0 0 0 0 41.948L.046 72.32c0 .417.23.833.598 1.018.368.232.828.232 1.15 0l11.596-6.667a2.358 2.358 0 0 0 1.196-2.037V50.421c0-.834.46-1.62 1.197-2.037l4.923-2.87a2.217 2.217 0 0 1 1.197-.325c.414 0 .828.092 1.15.324l4.923 2.87a2.358 2.358 0 0 1 1.197 2.038v14.214c0 .834.46 1.62 1.196 2.037l11.504 6.667c.368.232.828.232 1.196 0 .368-.185.598-.601.598-1.018V41.948ZM137.444.139c-.368-.185-.828-.185-1.151 0-.368.231-.597.602-.597 1.019v30.095a.893.893 0 0 1-.415.74.875.875 0 0 1-.828 0l-4.877-2.824a2.36 2.36 0 0 0-2.347 0l-19.51 11.344a2.358 2.358 0 0 0-1.196 2.037v22.64c0 .834.46 1.621 1.196 2.038l19.51 11.344a2.36 2.36 0 0 0 2.347 0l19.51-11.344a2.358 2.358 0 0 0 1.196-2.037V8.75c0-.88-.46-1.667-1.196-2.084L137.444.14Zm-1.794 57.598c0 .23-.093.416-.276.509l-6.673 3.89a.678.678 0 0 1-.598 0l-6.672-3.89c-.184-.093-.276-.324-.276-.51v-7.778c0-.231.092-.417.276-.51l6.672-3.889a.678.678 0 0 1 .598 0l6.673 3.89c.183.092.276.324.276.51v7.777ZM202.367 49.773c.738-.417 1.151-1.204 1.151-2.038v-5.51c0-.833-.459-1.62-1.151-2.037l-19.371-11.297a2.359 2.359 0 0 0-2.347 0L161.14 40.235a2.357 2.357 0 0 0-1.197 2.037v22.64c0 .834.46 1.621 1.197 2.038l19.371 11.112c.737.417 1.611.417 2.301 0l11.734-6.575c.368-.185.598-.602.598-1.018 0-.417-.23-.834-.598-1.019l-19.602-11.344c-.368-.23-.598-.601-.598-1.018v-7.084c0-.417.23-.834.598-1.019l6.12-3.518a1.117 1.117 0 0 1 1.196 0l6.12 3.518c.368.232.597.602.597 1.02v5.555c0 .417.231.833.6 1.019.367.231.827.231 1.195 0l11.595-6.806Z" clip-rule="evenodd"/><path fill="#5FA04E" fill-rule="evenodd" d="M181.524 48.708a.417.417 0 0 1 .461 0l3.726 2.176c.138.093.23.232.23.417v4.352a.487.487 0 0 1-.23.417l-3.726 2.176a.417.417 0 0 1-.461 0l-3.727-2.176a.487.487 0 0 1-.23-.417v-4.352c0-.185.092-.324.23-.417l3.727-2.176Z" clip-rule="evenodd"/><g clip-path="url(#b)"><mask id="d" width="44" height="51" x="53" y="28" maskUnits="userSpaceOnUse" style="mask-type:alpha"><path fill="url(#c)" d="M76.348 28.96a2.385 2.385 0 0 0-2.36 0L54.507 40.205c-.74.417-1.157 1.204-1.157 2.036v22.54c0 .833.463 1.62 1.157 2.036l19.48 11.246a2.385 2.385 0 0 0 2.36 0L95.83 66.819c.74-.416 1.156-1.204 1.156-2.036v-22.54a2.412 2.412 0 0 0-1.156-2.036L76.348 28.96Z"/></mask><g mask="url(#d)"><path fill="#750787" d="M97.056 70.132H53.35v8.258h43.706v-8.258Z"/><path fill="#004DFF" d="M97.056 61.773H53.35v8.358h43.706v-8.358Z"/><path fill="#008026" d="M97.056 53.515H53.35v8.258h43.706v-8.258Z"/><path fill="#FFED00" d="M97.056 45.256H53.35v8.259h43.706v-8.259Z"/><path fill="#FF8C00" d="M97.056 36.998H53.35v8.259h43.706v-8.259Z"/><path fill="#E40303" d="M97.056 28.64H53.35v8.358h43.706V28.64Z"/></g><g opacity=".5" style="mix-blend-mode:luminosity"><path fill="#fff" d="M76.348 28.96a2.385 2.385 0 0 0-2.36 0L54.507 40.205c-.74.417-1.157 1.204-1.157 2.036v22.54c0 .833.463 1.62 1.157 2.036l19.48 11.246a2.385 2.385 0 0 0 2.36 0L95.83 66.819c.74-.416 1.156-1.204 1.156-2.036v-22.54a2.412 2.412 0 0 0-1.156-2.036L76.348 28.96Z"/><g style="mix-blend-mode:luminosity"><mask id="f" width="44" height="51" x="53" y="28" maskUnits="userSpaceOnUse" style="mask-type:alpha"><path fill="url(#e)" d="M76.348 28.96a2.385 2.385 0 0 0-2.36 0L54.507 40.205c-.74.417-1.157 1.204-1.157 2.036v22.54c0 .833.463 1.62 1.157 2.036l19.48 11.246a2.385 2.385 0 0 0 2.36 0L95.83 66.819c.74-.416 1.156-1.204 1.156-2.036v-22.54a2.412 2.412 0 0 0-1.156-2.036L76.348 28.96Z"/></mask><g mask="url(#f)"><path fill="url(#g)" d="M76.348 28.96a2.385 2.385 0 0 0-2.36 0L54.507 40.205c-.74.417-1.157 1.204-1.157 2.036v22.54c0 .833.463 1.62 1.157 2.036l19.48 11.246a2.385 2.385 0 0 0 2.36 0L95.83 66.819c.74-.416 1.156-1.204 1.156-2.036v-22.54a2.412 2.412 0 0 0-1.156-2.036L76.348 28.96Z"/><g filter="url(#h)"><path fill="url(#i)" d="M95.875 40.206 76.3 28.96a3.215 3.215 0 0 0-.601-.231l-21.885 37.49c.185.231.477.569.709.708l19.463 11.138c.556.324 1.203.417 1.805.231l20.591-37.672a1.448 1.448 0 0 0-.508-.417Z"/></g><g filter="url(#j)"><path fill="url(#k)" d="M95.826 66.818c.556-.324 1.057-.931 1.057-1.663L75.559 28.682c-.556-.092-1.157-.046-1.666.277l-19.434 11.2 20.96 38.23c.306-.05.602-.144.88-.278l19.527-11.293Z"/></g></g></g></g></g></g><defs><linearGradient id="c" x1="83.101" x2="65.483" y1="37.336" y2="73.272" gradientUnits="userSpaceOnUse"><stop stop-color="#3F873F"/><stop offset=".33" stop-color="#3F8B3D"/><stop offset=".637" stop-color="#3E9638"/><stop offset=".934" stop-color="#3DA92E"/><stop offset="1" stop-color="#3DAE2B"/></linearGradient><linearGradient id="e" x1="83.101" x2="65.483" y1="37.336" y2="73.272" gradientUnits="userSpaceOnUse"><stop stop-color="#3F873F"/><stop offset=".33" stop-color="#3F8B3D"/><stop offset=".637" stop-color="#3E9638"/><stop offset=".934" stop-color="#3DA92E"/><stop offset="1" stop-color="#3DAE2B"/></linearGradient><linearGradient id="g" x1="83.101" x2="65.483" y1="37.336" y2="73.272" gradientUnits="userSpaceOnUse"><stop stop-color="#3F873F"/><stop offset=".33" stop-color="#3F8B3D"/><stop offset=".637" stop-color="#3E9638"/><stop offset=".934" stop-color="#3DA92E"/><stop offset="1" stop-color="#3DAE2B"/></linearGradient><linearGradient id="i" x1="72.207" x2="121.636" y1="56.143" y2="19.63" gradientUnits="userSpaceOnUse"><stop offset=".138" stop-color="#3F873F"/><stop offset=".402" stop-color="#52A044"/><stop offset=".713" stop-color="#64B749"/><stop offset=".908" stop-color="#6ABF4B"/></linearGradient><linearGradient id="k" x1="52.636" x2="97.713" y1="53.505" y2="53.505" gradientUnits="userSpaceOnUse"><stop offset=".092" stop-color="#6ABF4B"/><stop offset=".287" stop-color="#64B749"/><stop offset=".598" stop-color="#52A044"/><stop offset=".862" stop-color="#3F873F"/></linearGradient><filter id="h" width="66.568" height="73.662" x="41.815" y="16.728" color-interpolation-filters="sRGB" filterUnits="userSpaceOnUse"><feFlood flood-opacity="0" result="BackgroundImageFix"/><feColorMatrix in="SourceAlpha" result="hardAlpha" values="0 0 0 0 0 0 0 0 0 0 0 0 0 0 0 0 0 0 127 0"/><feOffset/><feGaussianBlur stdDeviation="6"/><feComposite in2="hardAlpha" operator="out"/><feColorMatrix values="0 0 0 0 0 0 0 0 0 0 0 0 0 0 0 0 0 0 0.75 0"/><feBlend in2="BackgroundImageFix" result="effect1_dropShadow_1_1661"/><feBlend in="SourceGraphic" in2="effect1_dropShadow_1_1661" result="shape"/></filter><filter id="j" width="66.424" height="73.748" x="42.459" y="16.64" color-interpolation-filters="sRGB" filterUnits="userSpaceOnUse"><feFlood flood-opacity="0" result="BackgroundImageFix"/><feColorMatrix in="SourceAlpha" result="hardAlpha" values="0 0 0 0 0 0 0 0 0 0 0 0 0 0 0 0 0 0 127 0"/><feOffset/><feGaussianBlur stdDeviation="6"/><feComposite in2="hardAlpha" operator="out"/><feColorMatrix values="0 0 0 0 0 0 0 0 0 0 0 0 0 0 0 0 0 0 0.75 0"/><feBlend in2="BackgroundImageFix" result="effect1_dropShadow_1_1661"/><feBlend in="SourceGraphic" in2="effect1_dropShadow_1_1661" result="shape"/></filter><clipPath id="b"><path fill="#fff" d="M53.35 28.64h43.707v49.75H53.35z"/></clipPath></defs></svg>
